!!!COM: Power, Leonel
!!!OTL: Salve Regina Mater Misericordie (A)
!!!ONM: No. 10
!!!YOR: from: "Complete Works" edited by Charles Hamm, Vol. 1, Motets, pp.13-17
!!!YOO: American Institute of Musicology
!!!YOY: 1969
**kern	**kern	**kern
*ICvox	*ICvox	*ICvox
! tenor	! contratenor	! discantus
*M3/4	*M3/4	*M3/4
=1	=1	=1
*>A1	*>A1	*>A1
!! Section 'A1'; (O/) mensuration.
2.c	[2.c	2.c
=2	=2	=2
2.A	2.c]	4e
.	.	2f
=3	=3	=3
2.G	[2.d	2g
.	.	4a
=4	=4	=4
2.F	4d]	4.cc
.	4f	.
.	.	8b
.	4e	8a
.	.	8g
=5	=5	=5
4B-	2d	4.g
2A	.	.
.	.	16f#x
.	.	16g
.	4c	8f#x
.	.	8e
=6	=6	=6
[2.G	2.d	2.g
=7	=7	=7
2.G]	2.G	2r
.	.	4g
=8	=8	=8
[2.c	2.F	2a
.	.	[4g
=9	=9	=9
2.c]	2.c	4g]
.	.	2e
=10	=10	=10
4G	2.d	2g
2B-	.	.
.	.	4g
=11	=11	=11
2.A	2r	2.c
.	4A	.
=12	=12	=12
4F	4A	4d
2G	2B-	2e
=13	=13	=13
2.F	4c	4.f
.	4d	.
.	.	8e
.	4e	4d
=14	=14	=14
2.A	4f	2c
.	4e	.
.	4d	4r
=15	=15	=15
2c	4r	2.a
.	4A	.
[4e	4c	.
=16	=16	=16
4e]	2.G	2.b
2d	.	.
=17	=17	=17
[2.c	4A	2cc
.	2F	.
.	.	4a
=18	=18	=18
4c]	4c	2g
4G	4B-	.
4A	4A	4f
=19	=19	=19
2B	4G	4g
.	4d	2a
[4c	4e	.
=20	=20	=20
4c]	2.c	2g
2A	.	.
.	.	4f#x
=21	=21	=21
2.G	2d	2.g
.	4e	.
=22	=22	=22
2.A	2f	2.r
.	4e	.
=23	=23	=23
2G	2g	2.r
4A	4c	.
=24	=24	=24
4B-	4d	2.r
2G	2e	.
=25	=25	=25
*>A2	*>A2	*>A2
!! Section 'A2'; (O/) mensuration.
2F	2f	2.r
4c	4e	.
=26	=26	=26
4e	2g	2cc
2d	.	.
.	4f	4b
=27	=27	=27
[2.c	2g	2.cc
.	[4e	.
=28	=28	=28
4c]	4e]	4a
2B-	2d	4g
.	.	4g
=29	=29	=29
2.A	2.c	4.f
.	.	8g
.	.	4a
=30	=30	=30
4c	2r	4.a
2d	.	.
.	.	8g
.	4d	8f
.	.	8e
=31	=31	=31
2c	2.A	4e
.	.	4r
4A	.	4c
=32	=32	=32
2F	2r	4d
.	.	2f
[4A	4c	.
=33	=33	=33
4A]	2c	4f
2G	.	4f
.	4Bnx	4e
=34	=34	=34
2.F	2.c	2.f
=35	=35	=35
2.A	2.F	2.r
=36	=36	=36
2.B-	2.G	2d
.	.	4d
=37	=37	=37
2c	4A	4c
.	4c	2g
4G	4d	.
=38	=38	=38
4B-	2d	4g
2A	.	4g
.	4c	4f
=39	=39	=39
2.G	2.d	2.g
=40	=40	=40
[2.c	2e	4a
.	.	4g
.	4d	4f
=41	=41	=41
2c]	2c	2e
4B-	4F	4d
=42	=42	=42
4c	2A	2e
4A	.	.
4G	4B-	4e
=43	=43	=43
*>A3	*>A3	*>A3
!! Section 'A3'; (O/) mensuration.
2F	2c	2.r
[4A	4d	.
=44	=44	=44
4A]	4c	2.r
2G	2e	.
=45	=45	=45
2.F	2f	4cc
.	.	4a
.	4e	4g
=46	=46	=46
2.r	2f	4.cc
.	.	16b
.	.	16cc
.	4e	8b
.	.	8a
=47	=47	=47
[2.F	2f	4cc
.	.	2dd
.	4r	.
=48	=48	=48
2.F]	4c	2cc
.	[2f	.
.	.	4b
=49	=49	=49
2.c	2f]	2a
.	4e	4g
=50	=50	=50
2A	2c	4f
.	.	2g
[4B-	[4d	.
=51	=51	=51
4B-]	4d]	2f
2G	2B-	.
.	.	4e
=52	=52	=52
2.F	2.c	2.f
=53	=53	=53
2.c	2.e	2r
.	.	4e
=54	=54	=54
2d	4d	4f
.	4B-	4d
4B-	4G	4d
=55	=55	=55
2.A	4A	2c
.	2F	.
.	.	8c
.	.	8d
=56	=56	=56
2r	2.G	4e
.	.	4e
4c	.	8e
.	.	8d
=57	=57	=57
4d	4F	4f
4c	4c	4e
4f	4d	4d
=58	=58	=58
4e	4e	2c
2d	2f	.
.	.	4B
=59	=59	=59
2c	2e	4c
.	.	2c
[4e	[4g	.
=60	=60	=60
4e]	4g]	2r
2d	2f	.
.	.	4b
=61	=61	=61
2.c	2g	2cc
.	4e	[4a
=62	=62	=62
2.d	4f	4a]
.	4d	2f
.	4r	.
=63	=63	=63
2c	2e	4g
.	.	2a
[4B-	[4d	.
=64	=64	=64
4B-]	4d]	4g
2A	2c	4g
.	.	4f
=65	=65	=65
2.G	4B-	2g
.	4G	.
.	4B-	4e
=66	=66	=66
4A	4c	4f
2B-	4d	2d
.	4f	.
=67	=67	=67
2.c	[2.e	4c
.	.	2g
=68	=68	=68
4G	4e]	4b
4F	4f	4cc
[4B-	4d	4a
=69	=69	=69
4B-]	4d	2g
2A	2c	.
.	.	4f#x
=70	=70	=70
[2.G	2.d	2.g
=71	=71	=71
2.G]	2g	2.r
.	4g	.
=72	=72	=72
2c	2g	2.r
4d	4f	.
=73	=73	=73
*>A4	*>A4	*>A4
!! Section 'A4'; (O/) mensuration.
4G	2e	2.r
2A	.	.
.	4f	.
=74	=74	=74
2G	4.g	2.r
.	8f	.
4B-	8e	.
.	8d	.
=75	=75	=75
[2.c	2.c	2c
.	.	[4g
=76	=76	=76
2.c]	2.e	4g]
.	.	2a
=77	=77	=77
2.F	2.f	4.cc
.	.	8b
.	.	8a
.	.	8g
=78	=78	=78
2B-	2d	2g
4A	4c	4f#x
=79	=79	=79
2.G	[2.d	2.g
=80	=80	=80
2.B-	2.d]	2r
.	.	4g
=81	=81	=81
2A	[2.e	2a
4c	.	4g
=82	=82	=82
4e	4e]	2cc
2d	2f	.
.	.	4b
=83	=83	=83
2.c	[2.F	2cc
.	.	4a
=84	=84	=84
2f	2.F]	4r
.	.	4.dd
4e	.	.
.	.	8cc
=85	=85	=85
4c	2.f	4cc
2d	.	2b
=86	=86	=86
2c	4g	4cc
.	4e	4.a
4B-	4d	.
.	.	8f
=87	=87	=87
4G	4d	4g
2A	4c	4e
.	4A	4c
=88	=88	=88
2B-	4r	4f
.	4d	2g
4A	4c	.
=89	=89	=89
4F	2c	2f
2G	.	.
.	4Bnx	4e
=90	=90	=90
2.F	2.c	2.f
!! main cadence point
!! Leonel Power edition is incorrect in length of final long;
!! corrected above.
!! Bar numbers are therefore incorrect from this point onward.
!! (duet)
=92	=92	=92
*>B	*>B	*>B
!! Section 'B'; (O) mensuration.
2c	2.r	2c
4G	.	8e
.	.	8f
=93	=93	=93
4B-	2.r	4g
4c	.	8a
.	.	8cc
4d	.	8b
.	.	8a
=94	=94	=94
4.c	2.r	4.cc
8d	.	8b
4e	.	8a
.	.	8g
=95	=95	=95
8f	2.r	8.f
8e	.	.
.	.	16g
4c	.	8a
.	.	16g
.	.	16a
4d	.	8cc
.	.	8b
=96	=96	=96
4c	2.r	8g
.	.	4a
4B-	.	.
.	.	4g
4A	.	.
.	.	8f#x
=97	=97	=97
4.G	2.r	2g
8A	.	.
4B-	.	4r
=98	=98	=98
4.c	2.r	4.e
8d	.	8f
4B-	.	4g
=99	=99	=99
4A	2.r	4a
4c	.	8g
.	.	8a
8d	.	8b
8e	.	8cc
=100	=100	=100
8f	2.r	8a
8g	.	8g
4e	.	4cc
4d	.	4b
=101	=101	=101
2c	2.r	4cc
.	.	4r
4f	.	4a
=102	=102	=102
2e	2.r	4g
.	.	8a
.	.	4cc
4d	.	.
.	.	8b
=103	=103	=103
8c	2.r	8a
8B	.	8g
2A	.	8f
.	.	8g
.	.	[4a
=104	=104	=104
4c	2.r	8a]
.	.	8g
4d	.	8f
.	.	8e
4c	.	4e
=105	=105	=105
8B-	2.r	8r
8A	.	8c
4F	.	8d
.	.	8f
4G	.	8e
.	.	8d
=106	=106	=106
4F	2.r	4f
4r	.	4.d
8B-	.	.
8A	.	8c
=107	=107	=107
8c	2.r	8e
8B-	.	8f
4G	.	4g
4A	.	4f
=108	=108	=108
4G	2.r	4g
8B-	.	4r
8c	.	.
4d	.	4b
=109	=109	=109
8e	2.r	4cc
4f	.	.
.	.	8a
8e	.	8g
4d	.	8b
.	.	8a
=110	=110	=110
2c	2.r	4c
.	.	8a
.	.	8g
4e	.	4g
=111	=111	=111
4d	2.r	4f
4B-	.	8g
.	.	4b-x
8d	.	.
8c	.	8a
=112	=112	=112
4A	2.r	4f
8G	.	4g
4c	.	.
.	.	8e
8B-	.	8d
=113	=113	=113
4c	2.r	4c
8B-	.	8d
8A	.	8c
4F	.	8f
.	.	[8g
=114	=114	=114
4B-	2.r	8g]
.	.	4f
8A	.	.
8F	.	8d
4G	.	4e
=115	=115	=115
2.F	2.r	2.f
!! Power edition is incorrect again regarding final long.
!! Bar numbering now out by two.
=117	=117	=117
*>C	*>C	*>C
!! Section 'C'; (O) mensuration.
2.d	2d	2f
.	4f	8a
.	.	8b
=118	=118	=118
4c	4e	8cc
.	.	8a
8d	8d	8b-x
8c	8e	8a
4A	4c	4f
=119	=119	=119
4G	4.d	8g
.	.	4a
8B-	.	.
8c	8e	4g
4A	4c	.
.	.	8f#x
=120	=120	=120
2.G	2.d	2.g
!! Power edition is incorrect in the length of final long again.
!! Bar numbers now out by three.
*M6/8	*M6/8	*M6/8
=122	=122	=122
*>D	*>D	*>D
!! Section 'D'; (C.) mensuration.
4.c	2.r	4.c
4.G	.	8.e
.	.	16f
.	.	8g
=123	=123	=123
4B-	2.r	8g
.	.	4a
4c	.	.
.	.	4cc
4d	.	.
.	.	8b
=124	=124	=124
4c	2.r	8cc
.	.	16g
.	.	16a
8e	.	16cc
.	.	16b
8f	.	8a
4e	.	4g
=125	=125	=125
8f	2.r	4f
4d	.	.
.	.	4g
4c	.	.
.	.	4a
[8B-	.	.
=126	=126	=126
8B-]	2.r	8.g
4A	.	.
.	.	16f#x
.	.	8e
4.G	4.g	.
=127	=127	=127
8A	2.r	4.r
4B-	.	.
4.c	.	4.e
=128	=128	=128
4B-	2.r	8g
.	.	4a
8A	.	.
4.c	.	4g
.	.	[8a
=129	=129	=129
4d	2.r	8a]
.	.	8b
8e	.	8cc
4f	.	8a
.	.	4dd
[8e	.	.
=130	=130	=130
8e]	2.r	4cc
4d	.	.
.	.	8b
4.c	.	4cc
.	.	8a
=131	=131	=131
8d	2.r	4r
4e	.	.
.	.	8g
4.e	.	8b
.	.	4cc
=132	=132	=132
8f	2.r	8a
8e	.	4g
8c	.	.
8r	.	4f
4d	.	.
.	.	[8g
=133	=133	=133
4.c	2.r	8g]
.	.	4a
8G	.	8b-
8F	.	16cc
.	.	16b-
[8B-	.	16a
.	.	16g
=134	=134	=134
8B-]	2.r	4g
4A	.	.
.	.	8f#x
4G	.	4.g
8c	.	.
=135	=135	=135
8c	2.r	4r
8d	.	.
8B-	.	8d
8c	.	8c
8B-	.	8d
8G	.	8e
=136	=136	=136
4F	2.r	4.f
4A	.	.
.	.	8e
4B-	.	4g
=137	=137	=137
8c	2.r	8a
4e	.	8cc
.	.	8dd
8f	.	4cc
16e	.	.
16c	.	.
8d	.	8b
=138	=138	=138
4c	2.r	8dd
.	.	8cc
8c	.	8a
8c	.	4a
4e	.	.
.	.	8g
=139	=139	=139
8f	2.r	16f
.	.	16g
8e	.	8.b
4d	.	.
.	.	16a
.	.	8a
4c	.	8g
.	.	16e
.	.	16d
=140	=140	=140
4B-	2.r	8d
.	.	8g
8c	.	8a
8A	.	8f
4G	.	8g
.	.	16e
.	.	16c
=141	=141	=141
4c	2.r	8c
.	.	8f
8B-	.	8g
8A	.	4f
4G	.	.
.	.	8e
=142	=142	=142
2.F	2.r	2.f
!! Power edition is incorrect on length of final long.
!! Bar numbers are now four out.
=144	=144	=144
*>E	*>E	*>E
!! Section 'E'; (C.) mensuration.
4.A	4.c	4r
.	.	8f
4.B-	8d	8g
.	8G	8d
.	8d	8g
=145	=145	=145
4.A	8e	8a
.	4c	4f
4G	4d	4.g
8B-	8G	.
*M9/8	*M9/8	*M9/8
=146	=146	=146
4c	4.F	4r
8d	.	8a
4e	8r	8b
.	8G	8cc
4f	8F	8dd
.	4.f	4cc
4d	.	.
.	.	8b
*M6/8	*M6/8	*M6/8
=147	=147	=147
2.c	2.g	2.cc
*M2/4	*M2/4	*M2/4
=148	=148	=148
*>F	*>F	*>F
!! Section 'F'; (C) mensuration.
2c	2r	2c
=149	=149	=149
4c	2r	4.e
[4G	.	.
.	.	8f
=150	=150	=150
4G]	2r	4g
[4F	.	8a
.	.	[8cc
=151	=151	=151
4F]	2r	8cc]
.	.	8b
8c	.	8a
8B-	.	8g
=152	=152	=152
4d	2r	4f
[4c	.	4g
=153	=153	=153
4c]	2r	4a
8G	.	8g
[8B-	.	8d
=154	=154	=154
8B-]	2r	8g
8c	.	8a
4A	.	4f#x
=155	=155	=155
4.G	2r	2g
8A	.	.
=156	=156	=156
4B-	2r	4r
[4c	.	[4e
=157	=157	=157
8c]	2r	8e]
8d	.	8f
4B-	.	4g
=158	=158	=158
4A	2r	4.a
4r	.	.
.	.	[8g
=159	=159	=159
4c	2r	8g]
.	.	8a
8d	.	8b
8e	.	8cc
=160	=160	=160
4.f	2r	4a
.	.	4dd
8g	.	.
=161	=161	=161
8e	2r	8cc
8c	.	4b
4d	.	.
.	.	8a
=162	=162	=162
2c	2r	2cc
=163	=163	=163
2f	2r	4r
.	.	4a
=164	=164	=164
4e	2r	4g
8d	.	8b
[8c	.	8cc
=165	=165	=165
8c]	2r	4a
4A	.	.
.	.	8f
8B-	.	8g
=166	=166	=166
4c	2r	4a
4d	.	4b
=167	=167	=167
4.c	2r	8cc
.	.	8b
.	.	8g
8B-	.	[8a
=168	=168	=168
8G	2r	8a]
8B-	.	4g
4A	.	.
.	.	8f#x
=169	=169	=169
2G	2r	2g
=170	=170	=170
4r	2r	4r
*>G	*>G	*>G
!! Section 'G'; (C) mensuration.
4r	.	4r
*M6/8	*M6/8	*M6/8
=171	=171	=171
!! New mensuration (C.).
8.c	2.r	8.cc
16d	.	16b
8e	.	8cc
8f	.	8a
8e	.	8g
8c	.	8cc
=172	=172	=172
8e	2.r	4cc
4d	.	.
.	.	8b
4.c	.	4.cc
=173	=173	=173
4.F	2.r	8r
.	.	4dd
4F	.	8cc
.	.	16b
.	.	8a
8A	.	.
.	.	16g
=174	=174	=174
4.B-	2.r	8f
.	.	4g
8A	.	4f
4G	.	.
.	.	8e
=175	=175	=175
4F	2.r	4.f
4A	.	.
.	.	4r
4B-	.	.
.	.	8g
=176	=176	=176
8c	2.r	8.a
4d	.	.
.	.	16g
.	.	16f
.	.	16e
8c	.	8e
8e	.	8c
8d	.	8r
=177	=177	=177
4c	2.r	8g
.	.	4a
4B-	.	.
.	.	4g
4A	.	.
.	.	8f#x
=178	=178	=178
4G	2.r	4.g
8B-	.	.
8c	.	4r
4d	.	.
.	.	8b
=179	=179	=179
8e	2.r	4cc
4d	.	.
.	.	8b
4c	.	8dd
.	.	8cc
8d	.	8a
=180	=180	=180
8B-	2.r	8g
4A	.	8f
.	.	8a
8c	.	8.cc
4d	.	.
.	.	16g
.	.	16f
.	.	16e
=181	=181	=181
8c	2.r	8e
8A	.	8c
4F	.	8d
.	.	4f
4G	.	.
.	.	8e
=182	=182	=182
4A	2.r	8f
.	.	4g
4B-	.	.
.	.	4f
4G	.	.
.	.	8e
=183	=183	=183
2.F	2.r	2.f
=184	=184	=184
*>H	*>H	*>H
!! Section 'H'; (C.) mensuration.
4.A	4.c	4r
.	.	8f
4B-	4G	8g
.	.	4a
[8c	8F	.
=185	=185	=185
8c]	8F	8g
8d	8B-	8d
8c	8A	8e
8G	8B-	4g
4A	4c	.
.	.	8f#x
=186	=186	=186
4.G	4.d	4.g
4.B-	4.G	4r
.	.	8g
=187	=187	=187
4c	8F	4a
.	8A	.
8d	8G	4b-
8B-	4.F	.
4c	.	8a
.	.	8f
=188	=188	=188
8A	[4.c	8e
8F	.	8g
4A	.	8f
.	4c]	4f
4G	.	.
.	8Bnx	8e
=189	=189	=189
2.F	2.c	4.f
.	.	4r
.	.	8a
=190	=190	=190
4.c	2F	4a
.	.	4cc
4.d	.	.
.	4G	4b
=191	=191	=191
4c	8r	8dd
.	4F	8cc
8f	.	8a
8e	8c	4g
4d	8d	.
.	8f	[8a
=192	=192	=192
8c	8e	8a]
8B-	2d	8g
4G	.	8d
.	.	4g
4A	.	.
.	8c	8f#x
=193	=193	=193
8G	4.d	2g
4B-	.	.
[4.c	4.e	.
.	.	4a
=194	=194	=194
8c]	8d	4a
2d	2f	.
.	.	4b
.	.	4cc
[8e	8g	.
*M9/8	*M9/8	*M9/8
=195	=195	=195
8e]	4.e	8b
4g	.	8g
.	.	8cc
4f	4d	8dd
.	.	4.cc
8e	8e	.
8c	4g	.
4d	.	8a
.	8f	8b
*M6/8	*M6/8	*M6/8
=196	=196	=196
2.c	2.g	2.cc
==	==	==
*-	*-	*-
!!!ENC: Mark Laxton
!!!EDD: Mark Laxton
!!!YEC: Mark Laxton, 1987
!!!EMD: Reference records added by D. Huron, 2001
!!!EEV: 1.1
